X:221
T:Croppies Lie Down. Le4.221
M:6/8
L:1/8
Q:3/8=90
C:"Irish Air"
B:L.Leadley MS#4 c1850
Z:Village Music Project 2016 Steve Mansfield
K:G
g | dBG GFG | ABA ABd | e(f/g/)e dBd | gGG Gge |
dBG GFG | ABA ABd || (ef/g/)e dBd | gGG G2 ||
e | def gfg | efg a2f | gab efg | dBG AGE |
G3 efg | dBd G2 |]

